z_dist/img/icons/crypto/cronos-CRO.svg

<svg width="64" height="64" viewBox="0 0 64 64" fill="none" xmlns="http://www.w3.org/2000/svg">
<rect width="64" height="64" rx="4" fill="white"/>
<path fill-rule="evenodd" clip-rule="evenodd" d="M12.2667 20.4513L32.0001 9.06665L51.7334 20.4513V43.2205L32.0001 54.6051L12.2667 43.2205V20.4513ZM24.2095 18.9096H39.751L41.6097 26.8156H22.3904L24.2095 18.9096ZM28.1641 37.4096L28.6782 32.4684L26.9777 28.041H37.0224L35.3615 32.4684L35.836 37.4096H31.9605H28.1641ZM39.7906 45.7109H36.9828L33.6214 42.6275V41.0463L37.1015 37.7258V32.4684L41.6492 29.5036L46.8297 33.4171L39.7906 45.7109ZM27.0964 45.7504L30.4578 42.6275V41.0464L26.9777 37.7258V32.4684L22.3904 29.5431L17.1704 33.4171L24.2491 45.7504H27.0964Z" fill="#03316C"/>
</svg>

<svg width="64" height="64" fill="none" xmlns="http://www.w3.org/2000/svg"><rect width="64" height="64" rx="4" fill="#fff"/><path fill-rule="evenodd" clip-rule="evenodd" d="M12.267 20.451L32 9.067 51.733 20.45v22.77L32 54.605 12.267 43.221V20.45zm11.942-1.541h15.542l1.859 7.906H22.39l1.82-7.906zm3.955 18.5l.514-4.942-1.7-4.427h10.044l-1.66 4.427.474 4.942h-7.672zm11.627 8.3h-2.808l-3.362-3.083v-1.58l3.48-3.321v-5.258l4.548-2.964 5.18 3.913-7.038 12.294zm-12.695.04l3.362-3.123v-1.58l-3.48-3.321v-5.258l-4.588-2.925-5.22 3.874 7.08 12.333h2.846z" fill="#03316C"/></svg>
